X: 7
T: Sackett's Harbor  v.2
P: piffero secondo a0133
O: Dan Moylan
%R:jig, march
F: http://ancients.sudburymuster.org/mus/col/pdf/contraF.pdf
Z: 2019 John Chambers <jc:trillian.mit.edu>
M: 6/8
L: 1/8
K: D
|: D3 F2G | AGF E2D | F3 E2F | GAG GFE | D3 F2G | AGF EFG | A2D DEF | D3 z3 :|
|: A3 F2D | FDA FDA | F3 G2A | GEF GEF | A3 F2D | FDA FDA | D2D DEF | D3 z3 :|
|: FAA A2F | EGG G2E | DFF FGF | GAG GEF | FAA A2F | EGG G2E | DFD EGE | F3 z3 :|
|: dAF DFA | fed cdB | AGF FGA | GAG GAB | dAF DFA | fed cdB | AGF FDE | F3 z3 :|


